X:2249
T:The White Boys 
C:Traditional
O:Isle of Man
Z:Clague collection
B:Kiaull Vannin #249 
L:1/8
M:6/8 
K:G 
G|G2B d2c|B2c A2B|G2A B2c|d3-d2 B|G2B d2c|B2c A2B|G2A B2c|d3 d2d| 
e2c f2 c|g2 f e2d|d2B B2B|B3 B2A/B/|c2c B2c|d2c A2B|B2c A2B|G2A B2c| 
d3 e2c|d2c A2F|G3 A3|B3 B2c|d3 e2c|d3 A2B|G3-G3|G3-G2|| 

